!!!OTL: HAR CHUELI ZUM BRUNNE
!!!ARE: Europa, Mitteleuropa, Schweiz, Bern
!!!SCT: E1478
!!!YEM: Copyright 1995, estate of Helmut Schaffrath.
**kern
*ICvox
*Ivox
*M3/8
*k[f#]
*G:
{8dd
=1
8dd
16dd
16b
8dd
=2
8cc
8a}
{8dd
=3
8dd
16dd
16b
8dd
=4
8cc
8a}
{8dd
=5
8a
8a
16a
16b
=6
8g
8g}
{8dd
=7
8a
8a
16a
16b
=8
8g
8g}
{8dd
=9
8a
8a
8b
=10
4g}
{8d
=11
8g
8g
16g
16a
=12
8b
8b
16r}
{16g
=13
8.b
16a
16b
16cc
=14
8dd
8dd}
{8dd
=15
8dd
8dd
8b
=16
8cc
8a}
{8dd
=17
8dd
8dd
8b
=18
8cc
8a}
{8dd
=19
8a
8a
8b
=20
8g
8g}
{8dd
=21
8a
8a
8b
=22
8g
8g}
{8dd
=23
4a
8a
=24
4b
8b
=25
4g}
==
!!!AGN: Staende -, Hirten -, Alpen - Lied, Kuhreihen
!!!ONB: ESAC (Essen Associative Code) Database: ERK3
!!!AMT: simple triple
!!!AIN: vox
!!!EED: Helmut Schaffrath
!!!EEV: 1.0
*-
